X: 61
T: POLKA: Dark Girl Dressed in Blue
C: C: Trad.; S: Various
C: Set Leaders: Mars, Anton
Z: [Unedited]; ceolachan at The Session
N: https://thesession.org/members/26966/sets/94260
R: Polka
M: 2/4
L: 1/8
Q: 1/4=140
K: Dmaj
|:FA Ad|Bd A>F|GB AF/A/|BE G/F/E/D/|
FA Ad|B/c/d/B/ A/B/A/F/|GB A/B/A/G/|FD D>E:||
|:FA A/B/d/e/|f/e/f/d/ ed|Bd/B/ A/D/F/A/|BE G/F/E/D/|
FA A/B/d/e/|f/e/f/d/ ed|Bd/B/ A/B/A/G/|FD D>E:||

